X:3594
L:1/8
M:6/8
K:Edor
 E/F/ |"Em" GEE BEE |"Em" GEE BAG |"D" FDD ADD |"D" dcd AGF |"Em" GEE BEE |"Em" GEG B2 c | 
"D" dcd AGF |"Em" GEE E2 :: B |"Em" Bcd e2 f |"Em" e2 f edB |"Em" Bcd e2 f |"Em" edB"D" d2 B | 
"Em" Bcd e2 f |"Em" e2 f edB |"D" dcd AGF |"Em" GEE E2 :|

